!!!COM:	Johannes Ockeghem
!!!CDT:	~1425-1497/02/06
!!!OTL:	Ma maistresse
!!!AGN:	Chanson; Virelai
!!!SCT:	Ock3012
!!!SCA:	Ock3012
!!!voices:	3
**kern	**kern	**kern
*staff3	*staff2	*staff1
*Ivox	*Ivox	*Ivox
*I"Contra	*I"Tenor	*I"Discantus
*I'C	*I'T	*I'D
*>[A,B]	*>[A,B]	*>[A,B]
*>A	*>A	*>A
*clefGv2	*clefGv2	*clefG2
*k[b-]	*k[b-]	*k[b-]
*M3/1	*M3/1	*M3/1
*met(O)	*met(O)	*met(O)
=1-	=1-	=1-
!	!	!LO:TX:Z=28:t=Form&colon; virelai (AbbaA)
1.F	0.f	0cc
2G/	.	.
1A	.	1a
=2	=2	=2
1.B-	1d	1.dd
.	1.g	.
2G/	.	2b-\
1G	.	2.b-\
.	2e\	.
.	.	4g/
=3	=3	=3
1A	2.e\	1cc
.	4c\	.
1F	1f	2dd\
.	.	1ff
1c	1g	.
.	.	2ee\
=4	=4	=4
0F	1f	2dd\
.	.	1cc
.	2c\	.
.	1f	2a/
1G	.	1g
.	2e\	.
=5	=5	=5
2.B-\	2d\	1.f
.	2B-\	.
4A/	.	.
2F/	1A	.
2c\	.	2e/
2d\	2B-\	2d/
2e\	2A/	2c/
=6	=6	=6
2f\	2F/	2.a/
1e	1c	.
.	.	8g/L
.	.	8a/J
.	.	4g/
.	.	4f/
1c	2F/	1f
.	1G	.
2B-\	.	2e/
=7	=7	=7
1.c	0F	1f
.	.	1r
2.A/	.	.
.	2r	1f
4F/	.	.
2c\	2A/	.
=8	=8	=8
2B-\	2G/	2e/
2A/	1c	2c/
1G	.	1d
.	2Bni\	.
1g	2c\	2c/
.	[2G/	2e/
=9	=9	=9
2r	4G/]	2d/
.	4A/	.
2d\	4B-\	1g
.	4c\	.
2.c\	1A	.
.	.	2f/
4d\	.	.
1e	2G/	2g/
.	2c\	2a/
=10	=10	=10
2d\	2B-\	2g/
2c\	2c\	1cc
2.f\	1d	.
.	.	2b-\
4g\	.	.
1a	2c\	2cc\
.	2f\	2dd\
=11	=11	=11
2r	2e\	2cc\
2a\	2f\	1ff
2g\	1g	.
2b-\	.	2ee\
2a\	2f\	1ff
2f\	2a\	.
=12	=12	=12
2g\	2g\	1r
2e\	1cc	.
1d	.	1ff
.	2bni\	.
1c	2.cc\	2ee\
.	.	[2gg\
.	4b-i\	.
=13	=13	=13
1c	2g\	2gg\]
.	2a\	2cc\
1G	1.g	2dd\
.	.	1ee
2r	.	.
2c\	2e\	2ee\
=14	=14	=14
2A/	2c\	1ee
2G/	2g\	.
2c\	2r	1ee
2r	2.c\	.
2g\	.	1ee
.	4B-\	.
2a\	2A/	.
=15	=15	=15
1b-	2G/	2.gg\
.	2.B-\	.
.	.	4ff\
1g	.	1dd
.	4A/	.
.	2B-\	.
2a\	2A/	[1ee
2b-\	2G/	.
=16	=16	=16
1.cc	2.A/	1ee]
.	4G/	.
.	2A/	1ff
2b-\	2B-\	.
1g	2c\	[1ee
.	2G/	.
=17	=17	=17
1a	2.c\	2ee\]
.	.	2cc\
.	4A/	.
2g\	2B-\	2dd\
1g	2c\	1cc
.	1d	.
2f\	.	2bni\
=18	=18	=18
0g	0.c	1cc
.	.	1r
1e	.	2a/
.	.	2b-\
=19	=19	=19
2.f\	1r	2dd\
.	.	1cc
4e\	.	.
1c	2r	.
.	2c\	2a/
[1B-	2d\	2b-\
.	2e\	2g/
=20	=20	=20
2B-\]	1.f	1f
2A/	.	.
2F/	.	1r
2B-\	2d\	.
2c\	2e\	1cc
2A/	2c\	.
=21	=21	=21
0B-	1B-	1.dd
.	2r	.
.	2B-\	2cc\
1G	2d\	2.b-\
.	2e\	.
.	.	4a/
=22	=22	=22
0F	1f	1a
.	1.a	1r
1A	.	1cc
.	2d\	.
=23	=23	=23
0.B-	1d	1.dd
.	2r	.
.	2d\	1ff
.	2f\	.
.	2g\	4ee\
.	.	4dd\
=24	=24	=24
0A	1.a	1.cc
.	2f\	2dd\
1G	2g\	2ee\
.	2e\	4dd\
.	.	4ee\
=25	=25	=25
2B-\	2d\	1ff
2A/	2.a\	.
2c\	.	2ee\
.	4g\	.
2d\	2f\	1dd
1A	1e	.
.	.	2cc#i\
=26	=26	=26
1a	1.d	0dd
1d	.	.
.	4c\	.
.	4B-\	.
1e	2.A/	1cc
.	4G/	.
=27	=27	=27
1.f	1.d	1b-
.	.	2a/
2e\	2c\	1a
2c\	2A/	.
2d\	2B-\	2g/
=28	=28	=28
2.f\	2d\	2.b-\
.	2c\	.
4e\	.	8a/L
.	.	8b-/J
4d\	1F	4a/
4c\	.	4g/
1c	.	1f
.	1G	.
2B-\	.	2e/
=29	=29	=29
0c	0F	1f
.	.	1r
1F	1a	1ff
=30	=30	=30
2G/	2g\	2ee\
1B-	1f	2.dd\
.	.	4cc\
2c\	2e\	2.cc\
[1F	1f	.
.	.	4b-\
.	.	4a/
.	.	4g/
=31	=31	=31
0F]	1a	2cc\
.	.	2dd\
.	2r	1ff
.	2a\	.
1G	2g\	2ee\
.	[2b-\	2dd\
=32	=32	=32
2G/	2b-\]	1gg
2c\	1a	.
2d\	.	1ff
2B-\	1g	.
2c\	.	2ee\
[2d\	2f\	[2dd\
=33	=33	=33
2d\]	2a\	4dd\]
.	.	4cc\
2G/	2g\	4b-\
.	.	4a/
2c\	2e\	2g/
2F/	2f\	1cc
1G	1d	.
.	.	2bni\
=34	=34	=34
0.gl	0.cl	0.ccl
!!LO:LB:i:g=z
=35||	=35||	=35||
*>B	*>B	*>B
*clefGv2	*clefGv2	*clefG2
*k[b-]	*k[]	*k[]
*M2/1	*M2/1	*M2/1
*met(C|)	*met(C|)	*met(C|)
!!section: Helas, de vous
!!!OMD: Helas, de vous
0d	0f	0a
=36	=36	=36
1A	1e	1cc
1A	1e	1cc
=37	=37	=37
0a	[0d	1.dd
.	.	2cc\
=38	=38	=38
0f	1d]	1a
.	1d	1r
=39	=39	=39
1d	1f	1dd
2A/	1e	1cc
2c\	.	.
=40	=40	=40
1B-	1f	1dd
1G	1g	1ee
=41	=41	=41
0d	1a	1ff
.	1f	[1dd
=42	=42	=42
0A	0e	1dd]
.	.	1cc
=43	=43	=43
0B-	0d	1.dd
.	.	2cc\
=44	=44	=44
1c	1r	1a
1G	1d	1b
=45	=45	=45
0c	0A	1cc
.	.	[1a
=46	=46	=46
0d	0B-i	1a]
.	.	1g
=47	=47	=47
0e	1A	0a
.	1A	.
=48	=48	=48
1f	0d	2b-i\
.	.	2a/
1f	.	2g/
.	.	2f/
=49	=49	=49
1g	0c	1e
[1e	.	[1a
=50	=50	=50
2e\]	1A	1a]
2c\	.	.
1d	1B-i	[1g
=51	=51	=51
1e	1c	1g]
[1c	1F	[1f
=52	=52	=52
1c]	0G	1f]
1B-	.	1e
=53	=53	=53
0c	0F	1f
.	.	1r
=54	=54	=54
1.f	0r	1.a
2g\	.	2b\
=55	=55	=55
0a	1.A	1.cc
.	2B\	2dd\
=56	=56	=56
1g	1c	1ee
1g	1c	1ee
=57	=57	=57
1f	0d	1.ff
1d	.	.
.	.	2ee\
=58	=58	=58
0A	1r	0cc
.	1e	.
=59	=59	=59
0a	[0f	1.dd
.	.	2cc\
=60	=60	=60
1d	1f]	1a
1e	1e	1g
=61	=61	=61
1f	1d	1.b
[1e	1c	.
.	.	4a/
.	.	4b\
=62	=62	=62
1e]	0A	1.cc
1c	.	.
.	.	2a/
=63	=63	=63
1d	0G	1b
1e	.	[1dd
=64	=64	=64
[0f	[0d	2dd\]
.	.	2cc\
.	.	2b\
.	.	2a/
=65	=65	=65
1f]	1d]	1b
[1e	1c	[1cc
=66	=66	=66
1e]	0A	2cc\]
.	.	2a/
1c	.	[1a
=67	=67	=67
0d	0B	1a]
.	.	1g#i
=68	=68	=68
0el	0Al	0al
==	==	==
*-	*-	*-
!!!RDF**kern: l=long note in original notation
!!!RDF**kern: i=editorial accidental
!!!RDF**kern: V=start of tuplet marker
!!!RDF**kern: Z=end of tuplet marker
!!!ENC:	Chris Gage 06-25-2012
!!!END:	2012/06/29/
!!!EED:	Jesse Rodin
!!!EEV:	2012/07/16/
!!!ONB:	Translated from MusicXML and edited on 2012/07/16/ by Craig Sapp
!!muse2ps: C^@{COM}^i2I150v85,85,100Q16
